X: 165
T: Lady Montgomery's Strathspey
R: strathspey
Q: "Slow"
B: William Shepherd "2nd Collection" 1800 p.16 #5
F: http://imslp.org/wiki/File:PMLP73094-Shepherd_Collections_HMT.pdf
C: William Shepherd (17??-1812)
Z: 2012 John Chambers <jc:trillian.mit.edu>
M: C
L: 1/16
K: A
E2 |\
A3TA {AB}c3A TF3A(E2A2) | TA3B (dc).B.A {g}f3B (Bd).c.B |\
A3TA {AB}c3A TF3A(E3A) | F3A .B2(cd) Tc2A2A2 :|
cd |\
e3TcA3a e3cA3E | e3Tc A2ga {a}b3B B2cd |\
e3cA3a e3cA3E | TF3A .B2(cd) Tc3A-A2 ||
cd |\
e3TcA3a e3cA3E | A3ce2ga {a}b3B- B2cd |\
(e3.a)(B3.a) (c3.a)A3F | E2AB (cB).A.B c2A2A2 |]

